X: 757
T: Zhu ashiza
L: 1/8
M: 2/4
K: F
G A c d [I:setbarnb 1]| 
c AG2 | 
c d c A | 
G4 | 
c df2 | 
f dc2 | 
d f c A | 
G4 | 
G Ac2 | 
Af2A | 
A c A G | 
F4 | 
F DC2 | 
A/ c/ A/ G/F2 | 
G> A F D | 
C4 | 
F> G A c | 
G3A | 
c> f d c | 
F4 | 
F DC2 | 
A GF2 | 
A G F D | 
C4 |]

@@@ Tune index: 9631
